X:10549
T:Polka GC (pk05100)
M:2/4
L:1/16
K:G %%MIDI gchordon
"G"ded2 B2c2 | ded2 B4 | "D7"d2c2 cBA2 | "G"B2d2 g4 | ded2 B2c2 | ded2 B4 | "D7"d2c2 cBA2 | "G"G2B2 G2z2::
"D7"F2G2 A2B2 | c2cde4 | "G"d2dc B2d2 | B2BAG4 | "D7"F2G2 A2B2 | c2cde4 | d2cB A2B2 | "G"G2B2 G2z2:: [K:C] 
"C"e2ed c2e2 | G2GF E2c2 | "G7"B2G2 z2d2 | "C"c2G2 z2c2 | e2ed c2e2 | G2GF E2c2 | "G7"B2G2 z2d2 | "C"c2c2 c2z2 :: [K:G]
"D7"d2>A2 d2>c2 | "G"c2B2 BAG2 | "D7"B2A2 AGF2 | "G"A2G2 GABc | "D7"d2>A2 d2>c2 | "G"c2B2 BAG2 | "D7"B2A2 AGF2 | "G"G2B2 G2z2 :| 
% pk05100
% June 16, 2016

